other/biodigital_human.svg

<svg viewBox="0 0 48 48" xmlns="http://www.w3.org/2000/svg">
    <style>
        .a{fill:none;stroke:#FFFFFF;stroke-linecap:round;stroke-linejoin:round}
    </style>
    <path class="a" d="M17.3867931,42.5H5.5V12.1132078C5.5,8.4608335,8.4608335,5.5,12.1132078,5.5H24v30.3867912 C24,39.5391655,21.0391655,42.5,17.3867931,42.5z"/>
    <path class="a" d="M35.8867912,42.5H24V24h11.8867912C39.5391655,24,42.5,26.9608345,42.5,30.6132069v5.2735844 C42.5,39.5391655,39.5391655,42.5,35.8867912,42.5z"/>
    <path class="a" d="M35.8867912,24H24V5.5h11.8867912C39.5391655,5.5,42.5,8.4608335,42.5,12.1132078v5.2735853 C42.5,21.0391655,39.5391655,24,35.8867912,24z"/>
</svg>

<?xml version="1.0" encoding="UTF-8"?><svg id="b" xmlns="http://www.w3.org/2000/svg" viewBox="0 0 48 48"><defs><style>.c{fill:none;stroke:#fff;stroke-linecap:round;stroke-linejoin:round;}</style></defs><path class="c" d="m17.3868,42.5H5.5V12.1132c0-3.6524,2.9608-6.6132,6.6132-6.6132h11.8868v30.3868c0,3.6524-2.9608,6.6132-6.6132,6.6132Z"/><path class="c" d="m35.8868,42.5h-11.8868v-18.5h11.8868c3.6524,0,6.6132,2.9608,6.6132,6.6132v5.2736c0,3.6524-2.9608,6.6132-6.6132,6.6132Z"/><path class="c" d="m35.8868,24h-11.8868V5.5h11.8868c3.6524,0,6.6132,2.9608,6.6132,6.6132v5.2736c0,3.6524-2.9608,6.6132-6.6132,6.6132Z"/></svg>
